Sources/FrostedUI/Resources/Icons.xcassets/edit24.imageset/edit-24.svg

<svg width="24" height="24" viewBox="0 0 24 24" fill="none" xmlns="http://www.w3.org/2000/svg" data-fui-icon="true">
  <path
    d="M9.25 2C9.66421 2 10 2.33579 10 2.75C10 3.16421 9.66421 3.5 9.25 3.5H7.75C5.40279 3.5 3.5 5.40279 3.5 7.75V16.25C3.5 18.5972 5.40279 20.5 7.75 20.5H16.25C18.5972 20.5 20.5 18.5972 20.5 16.25V14.75C20.5 14.3358 20.8358 14 21.25 14C21.6642 14 22 14.3358 22 14.75V16.25C22 19.4256 19.4256 22 16.25 22H7.75C4.57436 22 2 19.4256 2 16.25V7.75C2 4.57436 4.57436 2 7.75 2H9.25ZM16.165 3.02441C17.4934 1.69631 19.6472 1.6962 20.9756 3.02441C22.3038 4.35276 22.3037 6.50656 20.9756 7.83496L13.6641 15.1455C13.1175 15.6921 12.3765 15.9999 11.6035 16H9.25C8.55975 16 8.00016 15.4402 8 14.75V12.3965C8.00007 11.6235 8.30691 10.8816 8.85352 10.335L16.165 3.02441ZM9.91406 11.3955C9.64876 11.6608 9.50007 12.0213 9.5 12.3965V14.5H11.6035C11.9787 14.4999 12.3382 14.3503 12.6035 14.085L17.4482 9.23926L14.7588 6.5498L9.91406 11.3955ZM19.915 4.08496C19.1725 3.34254 17.9682 3.34264 17.2256 4.08496L15.8193 5.48926L18.5088 8.17871L19.915 6.77441C20.6574 6.0318 20.6574 4.82752 19.915 4.08496Z"
    fill="currentColor"
  />
</svg>

<svg xmlns="http://www.w3.org/2000/svg" width="24" height="24" fill="none" data-fui-icon="true" viewBox="0 0 24 24"><path fill="currentColor" d="M9.25 2a.75.75 0 0 1 0 1.5h-1.5A4.25 4.25 0 0 0 3.5 7.75v8.5a4.25 4.25 0 0 0 4.25 4.25h8.5a4.25 4.25 0 0 0 4.25-4.25v-1.5a.75.75 0 0 1 1.5 0v1.5A5.75 5.75 0 0 1 16.25 22h-8.5A5.75 5.75 0 0 1 2 16.25v-8.5A5.75 5.75 0 0 1 7.75 2zm6.915 1.024a3.402 3.402 0 0 1 4.81 4.811l-7.31 7.31a2.92 2.92 0 0 1-2.061.855H9.25C8.56 16 8 15.44 8 14.75v-2.354c0-.773.307-1.514.854-2.061zm-6.25 8.372a1.42 1.42 0 0 0-.415 1V14.5h2.104c.375 0 .734-.15 1-.415l4.844-4.846-2.69-2.69zm10-7.311a1.9 1.9 0 0 0-2.69 0L15.82 5.489l2.69 2.69 1.406-1.405a1.9 1.9 0 0 0 0-2.689"/></svg>
